X:1
T:Title
%%score { 1 | ( 2 3 ) }
L:1/8
M:2/4
K:F
V:1 treble nm="Grand Piano"
V:2 bass 
V:3 bass 
V:1
 z4 |[Q:1/4=100] FA AA | A2 F2 | GG FG | A4 | AA _A=A | [Fd]2 [Fc]2 | [Ec][EB] DE | F4 | %9
 [EG]>[EG] [EG][FA] | [GB]2 E2 | F2 FA | c4 | CF EF | A2 F2 | [DG]2 [Ed][Ec] | F4 |] %17
V:2
 z4 | [F,A,C][F,CF] [F,CF][F,CF] | [CF]2 [A,C]2 | [B,CE][B,CE] [A,C][G,CE] | [F,CF]4 | %5
 [F,CF][F,CF] [F,=B,F][F,CF] | [B,,B,]2 [F,A,]2 | [C,G,][C,G,] [C,B,][C,G,C] | [F,A,C]4 | %9
 [C,C]>[C,C] [C,C][C,C] | [C,C]2 [C,G,C]2 | [F,A,C]2 [A,C][F,CF] | [F,A,F]4 | %13
 [F,A,][F,A,C] [F,G,C][F,A,C] | [F,C]2 [F,A,C]2 | [B,,B,]2 [C,B,][C,B,] | [F,A,]4 |] %17
V:3
 x4 | x4 | F,4 | x4 | x4 | x4 | x4 | x4 | x4 | x4 | x4 | x4 | x4 | x4 | x4 | x4 | x4 |] %17

